!!!Melodie: eigene
!!!Typ: Lied
**kern	**silbe	**silbe	**silbe	**silbe	**silbe	**silbe	**silbe	**silbe	**silbe	**silbe	**silbe	**silbe	**silbe	**silbe	**silbe
*clefG2	*lang:DE	*lang:DE	*lang:DE	*lang:DE	*lang:DE	*lang:DE	*lang:DE	*lang:DE	*lang:DE	*lang:DE	*lang:DE	*lang:DE	*lang:DE	*lang:DE	*lang:DE
*M4/3	*	*	*	*	*	*	*	*	*	*	*	*	*	*	*
*met(3)	*	*	*	*	*	*	*	*	*	*	*	*	*	*	*
4dd	Lo#	Mei#	.	Lo#	der	.	Lo#	der	.	Lo#	der	.	Lo#	al#	.
4dd	#be	#ne	.	#be	dich	.	#be	dir	.	#be	aus	.	#be	#les	.
8Ldd	den	ge#	.	den	auf	.	den	Ge#	.	den	dem	.	den	was	.
8Jcc	|	|	.	|	|	.	|	|	.	|	|	.	|	|	.
=	=	=	=	=	=	=	=	=	=	=	=	=	=	=	=
4.b	Her#	#lie#	.	Her#	A#	.	Her#	#sund#	.	Her#	Him#	.	Her#	A#	.
8a	#ren,	#be#	.	#ren,	#de#	.	#ren,	#heit	.	#ren,	#mel	.	#ren,	#tem	.
4g	den	#te	.	der	#lers	.	der	ver#	.	der	mit	.	was	hat,	.
=	=	=	=	=	=	=	=	=	=	=	=	=	=	=	=
4.f#	mäch#	See#	.	al#	Fit#	.	künst#	#lie#	.	dei#	Strö#	.	in	lo#	.
8e	#ti#	#le,	.	#les	#ti#	.	#lich	#hen,	.	#nen	#men	.	mir	#be	.
4d	#gen	das	.	so	#chen	.	und	dich	.	Stand	der	.	ist,	mit	.
=	=	=	=	=	=	=	=	=	=	=	=	=	=	=	=
4g	Kö#	ist	.	herz#	si#	.	fein	freund#	.	sicht#	Lie#	.	lo#	Ab#	.
4a	#nig	mein	.	#lich	#cher	.	dich	#lich	.	#bar	#be	.	#be	#ra#	.
4b	der	Be#	.	re#	ge#	.	be#	ge#	.	ge#	ge#	.	den	#hams	.
=	=	=	=	=	=	=	=	=	=	=	=	=	=	=	=
(4.a	Eh#	#geh#	.	#gie#	#füh#	.	#rei#	#lei#	.	#seg#	#reg#	.	Na#	Sa#	.
8g)	|	|	.	|	|	.	|	|	.	|	|	.	|	|	.
4g	#ren,	#ren,	.	#ret,	#ret,	.	#tet,	#tet,	.	#net,	#net,	.	#men,	#men,	.
=:|	=	=	=	=	=	=	=	=	=	=	=	=	=	=	=
4dd	.	Kom#	.	.	der	.	.	zu	.	.	den#	.	.	er	.
4cc	.	#met	.	.	dich	.	.	wie	.	.	#ke	.	.	ist	.
4dd	.	zu	.	.	er#	.	.	viel	.	.	da#	.	.	dein	.
=	=	=	=	=	=	=	=	=	=	=	=	=	=	=	=
2.dd	.	hauf,	.	.	#hält,	.	.	Not	.	.	#ran,	.	.	Licht,	.
=	=	=	=	=	=	=	=	=	=	=	=	=	=	=	=
4.dd	.	Psal#	.	.	wie	.	.	hat	.	.	was	.	.	See#	.
8cc	.	#ter	.	.	es	.	.	nicht	.	.	der	.	.	#le,	.
4b	.	und	.	.	dir	.	.	der	.	.	All#	.	.	ver#	.
=	=	=	=	=	=	=	=	=	=	=	=	=	=	=	=
4.b	.	Har#	.	.	sel#	.	.	gnä#	.	.	#mäch#	.	.	#giss	.
8a	.	#fe,	.	.	#ber	.	.	#di#	.	.	#ti#	.	.	es	.
4g	.	wacht	.	.	ge#	.	.	#ge	.	.	#ge	.	.	ja	.
=	=	=	=	=	=	=	=	=	=	=	=	=	=	=	=
2.a	.	auf!	.	.	#fällt,	.	.	Gott	.	.	kann,	.	.	nicht,	.
=	=	=	=	=	=	=	=	=	=	=	=	=	=	=	=
4.f#	.	Las#	.	.	hast	.	.	ü#	.	.	der	.	.	Lo#	.
8e	.	#set	.	.	du	.	.	#ber	.	.	dir	.	.	#ben#	.
4d	.	die	.	.	nicht	.	.	dir	.	.	mit	.	.	#de	.
=|:	=	=	=	=	=	=	=	=	=	=	=	=	=	=	=
8Lee	.	Mu#	Mu#	.	die#	die#	.	Flü#	Flü#	.	Lie#	Lie#	.	schlie#	schlie#
8Jdd	.	|	|	.	|	|	.	|	|	.	|	|	.	|	|
8Lcc	.	#si#	#si#	.	#ses	#ses	.	#gel	#gel	.	#be	#be	.	#ße	#ße
8Jb	.	|	|	.	|	|	.	|	|	.	|	|	.	|	|
4a	.	#cam	#cam	.	ver#	ver#	.	ge#	ge#	.	be#	be#	.	mit	mit
=	=	=	=	=	=	=	=	=	=	=	=	=	=	=	=
(4.a	.	hö#	hö#	.	#spü#	#spü#	.	#brei#	#brei#	.	#geg#	#geg#	.	A#	A#
8g)	.	|	|	.	|	|	.	|	|	.	|	|	.	|	|
4g	.	#ren!	#ren!	.	#ret,	#ret?	.	#tet,	#tet.	.	#net,	#net.	.	#men,	#men.
=:|	=	=	=	=	=	=	=	=	=	=	=	=	=	=	=
==	==	==	==	==	==	==	==	==	==	==	==	==	==	==	==
*-	*-	*-	*-	*-	*-	*-	*-	*-	*-	*-	*-	*-	*-	*-	*-
